X:1
T:Vezzosett'e care
T:Vezzosett'e care
T:Gio.Girolamo Kapsperger
C:Gio.Girolamo Kapsperger
%%score 1 { ( 2 4 ) | 3 }
L:1/8
Q:1/4=120
M:4/4
K:F
V:1 treble nm="Soprano" snm="S"
V:2 treble nm="BC" snm="BC"
V:4 treble 
V:3 bass 
V:1
 z2 AB cd B2 | G4 G2 AB | c2 B2 A4 | A2 GA B2 c2 | dc BA GF GA | B3 c c4 |1 B8 ::2 B6 AB || %8
w: Vez- zo- sett' * e|ca- re pu- pi-|let- te'ar- den-|ti chi- v'ha fatt' ha-|va- * re * de * bei _|rai lu- cen-|ti,|ti, s'io- ri-|
w: Chi v'ha fat- * t'o-|scu- re pu- pi-|let- te bel-|le, che se- re- n'e|pu- * re * ras- * sem- *|bra- vi stel-|le,|le, chi m'a|
w: Non piu sde- * go-|set- te ri- mi-|rar' vi vo-|glio ne piu su- per-|bet- * te * sof- * frir' *|tan- t'or- go-|glio,|glio, che ve-|
w: Pu- pi- let- * te'a-|ma- te d'a- mor|scher- zo'e gio-|co ah non piu ce-|la- * te * il * mio _|dol- ce fo-|co,|co, ma spar-|
w: E di ce- * tra|d'o- ro al so-|a- ve can-|to al- ze- ro ca-|no- * ro * del * bel *|lu- me'il van-|to,|to, e tra|
 c3 c c3 =B | c4 G2 GA | B G2 A G G2 ^F | G6 Bc | dABF AGAB | c3 C DCDE | F3 G G4 | F2 AB cd B2 | %16
w: mi- ro'i vo- stri|sguar- di- scor- go|sol ful- mi- ni'e dar *|di, ne ve-|der so piu quel ri- so che ren-|der si va- * * *|* go'il vi-|so, vez- zo- sett' * e|
w: tol- t'i dol- ci|a- i, dil- lo'A-|mor' se tu lo sa- *|i, dil- lo'e|sia quel che si fia o di- sprez-|z'o ge- lo- * * *|* * si-|a,- * * * * *|
w: der s'io non v'of-|fe- si, vo- stri|rai di sde- gno'ac- ce- *|si, pu- pi-|let- t'e'in- giusto due- l'o ri- de- te'o|io pren- do'il _ _ _|_ _ vo-|lo, * * * * *|
w: get' a mil- le'a|mil- le lie- ti|rai lie- ti fa- vil- *|le, e ve-|dre- te'in fin nel se- no'il mio cor|ri- der se- * * *|* * re-|no, * * * * *|
w: mil- le stel- l'e|mil- le, ful- gi-|dis- si- me pu- pil- *|le, splen- de-|re- te'u- ni- ch'e So- le piu di|Cin- tia'e piu _ _ _|_ del So-|le, * * * * *|
 G4 G2 AB | c2 B2 A4 | A2 GA B2 c2 | dc BA GF GA | BA GF G4 | F8 :| %22
w: ca- re pu- pi-|let- te'ar- di-|ti, chi v'ha fatt' a-|va- * re * de * bei _|rai _ lu- * cen-|ti.|
w: ||||||
w: ||||||
w: ||||||
w: ||||||
V:2
 [Ac]4 A2 [GB]2 | [Ec]6 [Fd]2 | [EAc]2 [B,G]2 [CA]4- | [CA]2 [GB]2 [Fd]2 [_EGc]2 | [Fd]4 [GB]4 | %5
 B4 A4 |1 [DFB]8 ::2 [DFB]6 [Ac]2- || c2 c2 c3 =B | [Gc]8 | [GB]2 [Gc]4 [DA]2 | [DB]8 | GA B2 c4 | %13
 [Fc]4 [FB]4 | [Fc]2 [DBd]2 [EGc]4 | [FAc]6 [Gd]2 | [EGc]6 [DF]2 | [Ec]2 [DBd]2 [Ac]4- | %18
 [Ac]2 [GB]2 F2 [_EG]2 | [DFB]4 [CE]4 | B2 A2 c4 | [CFA]8 :| %22
V:3
 F,6 G,2 | C,6 B,,2 | A,,2 G,,2 F,,4 | F,2 _E,2 D,2 C,2 | B,,4 _E,4 | D,2 _E,2 F,4 |1 B,,8 ::2 %7
 B,,6 F,2- || F,2 _E,2 G,4 | C,6 _E,2 | _E,2 C,4 D,2 | G,,6 G,A, | B,^F,G,D, =F,4 | A,,4 B,,4 | %14
 A,,2 B,,2 C,4 | F,,6 G,,2 | C,6 B,,2 | A,,2 G,,2 F,,4 | F,2 _E,2 D,2 C,2 | B,,4 A,,4 | %20
 G,,2 F,,2 C,4 | F,,8 :| %22
V:4
 x8 | x8 | x8 | x8 | x8 | F2 G2 F4 |1 x8 ::2 x8 || A2 G2 [DG]4 | x8 | x8 | x8 | D4 A4 | x8 | x8 | %15
 x8 | x8 | x8 | x8 | x8 | D4 F2 E2 | x8 :| %22

